static/img/kroki/ea3c2b5ac7fbd83c7ea0b841617ec601.svg

<?xml version="1.0" encoding="us-ascii" standalone="no"?><svg xmlns="http://www.w3.org/2000/svg" xmlns:xlink="http://www.w3.org/1999/xlink" contentStyleType="text/css" height="374px" preserveAspectRatio="none" style="width:202px;height:374px;" version="1.1" viewBox="0 0 202 374" width="202px" zoomAndPan="magnify"><defs/><g><!--class gcp_commitment--><g id="elem_gcp_commitment"><rect codeLine="23" fill="#3D176E" height="39.7891" id="gcp_commitment" rx="2.5" ry="2.5" style="stroke:#000D19;stroke-width:0.5;" width="188" x="7" y="328.58"/><ellipse cx="22" cy="348.4745" fill="#ADD1B2" rx="11" ry="11" style="stroke:#181818;stroke-width:1.0;"/><path d="M24.9688,354.1152 Q24.3906,354.412 23.75,354.5527 Q23.1094,354.7089 22.4063,354.7089 Q19.9063,354.7089 18.5781,353.0683 Q17.2656,351.412 17.2656,348.287 Q17.2656,345.162 18.5781,343.5058 Q19.9063,341.8495 22.4063,341.8495 Q23.1094,341.8495 23.75,342.0058 Q24.4063,342.162 24.9688,342.4589 L24.9688,345.1777 Q24.3438,344.5995 23.75,344.3339 Q23.1563,344.0527 22.5313,344.0527 Q21.1875,344.0527 20.5,345.1308 Q19.8125,346.1933 19.8125,348.287 Q19.8125,350.3808 20.5,351.4589 Q21.1875,352.5214 22.5313,352.5214 Q23.1563,352.5214 23.75,352.2558 Q24.3438,351.9745 24.9688,351.3964 L24.9688,354.1152 Z " fill="#000000"/><text fill="#D9B8FF" font-family="Helvetica" font-size="17" lengthAdjust="spacing" textLength="146" x="41" y="354.3598">gcp_commitment</text></g><!--class gcp_resource--><g id="elem_gcp_resource"><rect codeLine="26" fill="#3D176E" height="39.7891" id="gcp_resource" rx="2.5" ry="2.5" style="stroke:#000D19;stroke-width:0.5;" width="150" x="26" y="167.79"/><ellipse cx="41" cy="187.6845" fill="#ADD1B2" rx="11" ry="11" style="stroke:#181818;stroke-width:1.0;"/><path d="M43.9688,193.3252 Q43.3906,193.622 42.75,193.7627 Q42.1094,193.9189 41.4063,193.9189 Q38.9063,193.9189 37.5781,192.2783 Q36.2656,190.622 36.2656,187.497 Q36.2656,184.372 37.5781,182.7158 Q38.9063,181.0595 41.4063,181.0595 Q42.1094,181.0595 42.75,181.2158 Q43.4063,181.372 43.9688,181.6689 L43.9688,184.3877 Q43.3438,183.8095 42.75,183.5439 Q42.1563,183.2627 41.5313,183.2627 Q40.1875,183.2627 39.5,184.3408 Q38.8125,185.4033 38.8125,187.497 Q38.8125,189.5908 39.5,190.6689 Q40.1875,191.7314 41.5313,191.7314 Q42.1563,191.7314 42.75,191.4658 Q43.3438,191.1845 43.9688,190.6064 L43.9688,193.3252 Z " fill="#000000"/><text fill="#D9B8FF" font-family="Helvetica" font-size="17" lengthAdjust="spacing" textLength="108" x="60" y="193.5698">gcp_resource</text></g><!--class resource--><g id="elem_resource"><rect codeLine="29" fill="#3D176E" height="39.7891" id="resource" rx="2.5" ry="2.5" style="stroke:#000D19;stroke-width:0.5;" width="113" x="44.5" y="7"/><ellipse cx="59.5" cy="26.8945" fill="#ADD1B2" rx="11" ry="11" style="stroke:#181818;stroke-width:1.0;"/><path d="M62.4688,32.5352 Q61.8906,32.832 61.25,32.9727 Q60.6094,33.1289 59.9063,33.1289 Q57.4063,33.1289 56.0781,31.4883 Q54.7656,29.832 54.7656,26.707 Q54.7656,23.582 56.0781,21.9258 Q57.4063,20.2695 59.9063,20.2695 Q60.6094,20.2695 61.25,20.4258 Q61.9063,20.582 62.4688,20.8789 L62.4688,23.5977 Q61.8438,23.0195 61.25,22.7539 Q60.6563,22.4727 60.0313,22.4727 Q58.6875,22.4727 58,23.5508 Q57.3125,24.6133 57.3125,26.707 Q57.3125,28.8008 58,29.8789 Q58.6875,30.9414 60.0313,30.9414 Q60.6563,30.9414 61.25,30.6758 Q61.8438,30.3945 62.4688,29.8164 L62.4688,32.5352 Z " fill="#000000"/><text fill="#D9B8FF" font-family="Helvetica" font-size="17" lengthAdjust="spacing" textLength="71" x="78.5" y="32.7798">resource</text></g><!--reverse link gcp_resource to gcp_commitment--><g id="link_gcp_resource_gcp_commitment"><path codeLine="32" d="M101,225.84 C101,256.36 101,297.69 101,328.25 " fill="none" id="gcp_resource-backto-gcp_commitment" style="stroke:#FFAF37;stroke-width:2.0;"/><polygon fill="none" points="101,207.84,95,225.84,107,225.84,101,207.84" style="stroke:#FFAF37;stroke-width:2.0;"/></g><!--reverse link resource to gcp_resource--><g id="link_resource_gcp_resource"><path codeLine="33" d="M101,65.05 C101,95.57 101,136.9 101,167.46 " fill="none" id="resource-backto-gcp_resource" style="stroke:#FFAF37;stroke-width:2.0;"/><polygon fill="none" points="101,47.05,95,65.05,107,65.05,101,47.05" style="stroke:#FFAF37;stroke-width:2.0;"/></g><!--SRC=[XP9BQyCm48Jl-XM2d0rsG-iOUaaCfRs4qlHUP6bb2rkIMSaDwUE_DswQ8jjvN6S-PcUNhPG02hhrEwf15u2Ek5gPbY7JT8bejxbjBDAPb4pEqx7vO8s_2goP1le8pJjunTcOUAqKhmquHsy2QyLuNQBjZ3Z4UsJ6xIqmFg3oXZctz1vLqNa8oeYiM4Wv9iUXixb8qZkOO1O5u1yInx58iZ5oTTJ5lV-9ZVe0ceH7MriFavgJ4R_KnPOz4PISB7hqptPyPa8eKzBRG7ivT483ED0t5HDsszEIDIuSupmWMBzh8Pzi1Tb2oFGa_7GE9hm_7Irv-yQjrihh_KFGJqA-0mV1sGuvXFfG6r3tNr4KZIB92VSeaHy0]--></g></svg>

<svg xmlns="http://www.w3.org/2000/svg" width="202" height="374" viewBox="0 0 202 374"><rect width="188" height="39.789" x="7" y="328.58" fill="#3D176E" rx="2.5" ry="2.5" style="stroke:#000d19;stroke-width:.5"/><circle cx="22" cy="348.474" r="11" fill="#ADD1B2" style="stroke:#181818;stroke-width:1"/><path d="M24.969 354.115q-.578.297-1.219.438-.64.156-1.344.156-2.5 0-3.828-1.64-1.312-1.657-1.312-4.782t1.312-4.781q1.328-1.656 3.828-1.656.703 0 1.344.156.656.156 1.219.453v2.719q-.625-.579-1.219-.844-.594-.281-1.219-.281-1.343 0-2.031 1.078-.687 1.062-.687 3.156t.687 3.172q.688 1.062 2.031 1.062.625 0 1.219-.265.594-.281 1.219-.86z"/><text x="41" y="354.36" fill="#D9B8FF" font-family="Helvetica" font-size="17" textLength="146">gcp_commitment</text><rect width="150" height="39.789" x="26" y="167.79" fill="#3D176E" rx="2.5" ry="2.5" style="stroke:#000d19;stroke-width:.5"/><circle cx="41" cy="187.685" r="11" fill="#ADD1B2" style="stroke:#181818;stroke-width:1"/><path d="M43.969 193.325q-.578.297-1.219.438-.64.156-1.344.156-2.5 0-3.828-1.64-1.312-1.657-1.312-4.782t1.312-4.781q1.328-1.656 3.828-1.656.703 0 1.344.156.656.156 1.219.453v2.719q-.625-.578-1.219-.844-.594-.281-1.219-.281-1.343 0-2.031 1.078-.687 1.062-.687 3.156t.687 3.172q.688 1.062 2.031 1.062.625 0 1.219-.265.594-.281 1.219-.86z"/><text x="60" y="193.57" fill="#D9B8FF" font-family="Helvetica" font-size="17" textLength="108">gcp_resource</text><rect width="113" height="39.789" x="44.5" y="7" fill="#3D176E" rx="2.5" ry="2.5" style="stroke:#000d19;stroke-width:.5"/><circle cx="59.5" cy="26.895" r="11" fill="#ADD1B2" style="stroke:#181818;stroke-width:1"/><path d="M62.469 32.535q-.578.297-1.219.438-.64.156-1.344.156-2.5 0-3.828-1.64-1.312-1.657-1.312-4.782t1.312-4.781q1.328-1.656 3.828-1.656.703 0 1.344.156.656.156 1.219.453v2.719q-.625-.578-1.219-.844-.594-.281-1.219-.281-1.343 0-2.031 1.078-.687 1.062-.687 3.156T58 29.879q.688 1.062 2.031 1.062.625 0 1.219-.265.594-.281 1.219-.86z"/><text x="78.5" y="32.78" fill="#D9B8FF" font-family="Helvetica" font-size="17" textLength="71">resource</text><path fill="none" d="M101 225.84v102.41m0-120.41-6 18h12zm0-142.79v102.41m0-120.41-6 18h12z" style="stroke:#ffaf37;stroke-width:2"/></svg>
